X:697
T:Reel 697
M:4/4
K:Emin
L:1/8
ge|d2BG AGEF|G2BG ABge|dBBG AGAe|gefg a2ge|dBAB A2GA|d2dB A2BA|G2Ge Bege|abaf g2:|ef|gfga gedf|gdbd Bdef|gfga gbaf|gefd B2Bf|gagb a2c'a|gefg edBe|g2ge f2df|edBA B2|
